!!!!SEGMENT: pl-wtm--r-1461--025_stefani-jozef--wszechstronne-cwiczenia-glosowe-allegro.krn
!!!cenid: 18xx:2202
!!!COM: Stefani, Józef
!!!COM-rismID: pe30024097
!!!CDT: 1800/04/16-1876/03/19
!!!CNT: Polish
!!!GTL: Wszechstronne ćwiczenia głosowe
!!!OTL: Allegro
!!!PDT:
!!!AGN: Secular
!!!SMS-siglum: PL-Wtm
!!!SMS-shelfmark: R 1461
!!!SMS-shelfwork: 025 G
!!!SMS-variant:
!!!SMS-altvar:
!!!NIFC-rismSourceID: 1001120710
!!!NIFC-islandoraID: pl-wtm:25869
!!!URL-pdf-islandora: https://repozytorium.nifc.pl/islandora/object/pl-wtm%3A25869/datastream/PDF/view
!!!URL-scan: https://polish.musicsources.pl/pl/lokalizacje/galeria/rekopisy/6276/23 @EN{Scan on Polish Music Sources Website} @PL{Skany w portalu Dziedzictwo Muzyki Polskiej w otwartym dostępie}
!!!ONB-nifc: UWAGA: skan 0023, s. 42-43
!!!OMD: Allegro.
!!!AIN: 1 empty 1 tenor
!!!key:
**kern	**kern	**kern	**text
*part2	*part2	*part1	*part1
*staff3	*staff2	*staff1	*staff1
*Iempty	*Iforte	*Itenor	*
*	*I"Fortepian	*I"Sopran/Tenor	*
*clefF4	*clefG2	*clefG2	*
*k[]	*k[]	*k[]	*
*C:	*C:	*C:	*
*M2/4	*M2/4	*M2/4	*
*all\right	*all\right	*all\right	*
=1	=1	=1	=1
4C 4CC\	4c 4G< 4E</	16c/LL	a
.	.	16d/	.
.	.	16c/	.
.	.	16d/JJ	.
4C 4CC\	4c 4G< 4E</	16c/LL	.
.	.	16d/	.
.	.	16c/	.
.	.	16d/JJ	.
=2	=2	=2	=2
4BB 4BBB\	4d 4G</	16d/LL	.
.	.	16e/	.
.	.	16d/	.
.	.	16e/JJ	.
4BB 4BBB\	4d 4G</	16d/LL	.
.	.	16e/	.
.	.	16d/	.
.	.	16e/JJ	.
=3	=3	=3	=3
4BB-X 4BBB-X\	4e 4c 4G</	16e/LL	.
.	.	16f/	.
.	.	16e/	.
.	.	16f/JJ	.
4BB- 4BBB-\	4e 4c 4G</	16e/LL	.
.	.	16f/	.
.	.	16e/	.
.	.	16f/JJ	.
=4	=4	=4	=4
4AA 4AAA\	4f 4c 4F</	16f/LL	.
.	.	16g/	.
.	.	16f/	.
.	.	16g/JJ	.
4AA 4AAA\	4f 4c 4F</	16f/LL	.
.	.	16g/	.
.	.	16f/	.
.	.	16g/JJ	.
!!LO:PB:g=original
=5	=5	=5	=5
4E 4EE/	4g 4c/	16g/LL	.
.	.	16a/	.
.	.	16g/	.
.	.	16a/JJ	.
4E 4EE/	4g 4c/	16g/LL	.
.	.	16a/	.
.	.	16g/	.
.	.	16a/JJ	.
=6	=6	=6	=6
4F 4FF/	4a 4f 4c/	16a/LL	.
.	.	16b/	.
.	.	16a/	.
.	.	16b/JJ	.
4F 4FF/	4a 4f 4c/	16a/LL	.
.	.	16b/	.
.	.	16a/	.
.	.	16b/JJ	.
=7	=7	=7	=7
4D 4DD/	4b 4g 4f/	16b\LL	.
.	.	16cc\	.
.	.	16b\	.
.	.	16cc\JJ	.
4G 4GG\	4b 4g 4f 4d/	16b\LL	.
.	.	16cc\	.
.	.	16b\	.
.	.	16dd\JJ	.
=8	=8	=8	=8
4c 4C;\	4cc 4g 4e;/	4cc;\	.
4r	4r	4r	.
=9	=9	=9	=9
4c 4C\	4cc 4g 4e/	16cc\LL	.
.	.	16dd\	.
.	.	16cc\	.
.	.	16dd\JJ	.
4c 4C\	4cc 4g 4e/	16cc\LL	.
.	.	16dd\	.
.	.	16cc\	.
.	.	16dd\JJ	.
!!LO:LB:g=original
=10	=10	=10	=10
4G 4GG\	4b 4g 4d/	16b\LL	.
.	.	16cc\	.
.	.	16b\	.
.	.	16cc\JJ	.
4G 4GG\	4b 4g 4d/	16b\LL	.
.	.	16cc\	.
.	.	16b\	.
.	.	16cc\JJ	.
=11	=11	=11	=11
4A 4AA\	4a 4e 4c/	16a/LL	.
.	.	16b/	.
.	.	16a/	.
.	.	16b/JJ	.
4F#X 4FF#X\	4a 4d 4c/	16a/LL	.
.	.	16b/	.
.	.	16a/	.
.	.	16b/JJ	.
=12	=12	=12	=12
4G 4GG\	4g 4d 4B/	16g/LL	.
.	.	16a/	.
.	.	16g/	.
.	.	16a/JJ	.
4E 4EE/	4g 4c/	16g/LL	.
.	.	16a/	.
.	.	16g/	.
.	.	16a/JJ	.
=13	=13	=13	=13
4F 4FF/	4f 4c 4A/	16f/LL	.
.	.	16g/	.
.	.	16f/	.
.	.	16g/JJ	.
4D 4DD/	4f 4B 4G/	16f/LL	.
.	.	16g/	.
.	.	16f/	.
.	.	16g/JJ	.
=14	=14	=14	=14
4C 4CC/	4e 4c 4G/	16e/LL	.
.	.	16f/	.
.	.	16e/	.
.	.	16f/JJ	.
4C 4CC/	4e 4c 4G/	16e/LL	.
.	.	16f/	.
.	.	16e/	.
.	.	16f/JJ	.
!!LO:LB:g=original
=15	=15	=15	=15
4F 4FF\	4d 4c 4A/	16d/LL	.
.	.	16e/	.
.	.	16d/	.
.	.	16e/JJ	.
4G 4GG\	4d 4B/	16d/LL	.
.	.	16e/	.
.	.	16d/	.
.	.	16e/JJ	.
=16	=16	=16	=16
4C;/	4c;/	4c;/	.
4r	4r	4r	.
==	==	==	==
*-	*-	*-	*-
!!!system-decoration: <s1>{(s2,s3)}
!!!RDF**kern: > = above
!!!RDF**kern: < = below
!!!ENC: Andrzej Kubiczek
!!!END: 2021-06-04
!!!ENC: Tomasz Grochalski
!!!END: 2021-05-22
!!!YEC: Copyright 2022 Narodowy Instytut Fryderyka Chopina (https://polishscores.org)
!!!YEM: Licence CC BY 4.0 (https://creativecommons.org/licenses/by/4.0)
